X:244
T:Parting Lovers,The. JaW.244
T:Jack in the Green,aka. Jaw.244
M:6/8
L:1/8
Q:3/8=120
S:James Winder Ms, Lancashire, 1835-41
R:.Jig
O:England
A:Wyresdale,Lancashire
Z:vmp.Chris Partington, Aug 2004
K:G
G2B A2c|B2d c2e|def gfe|dcB AGF|!
G2B A2c|B2d c2e|dcB AGF|G3 “^A, in MS”G,3:|!
|:g2e f2d|g2e f2d|gfe agf|efd ^cBA|!
g2e f2d|”_bar not in MS”g2e f2d|egf edc|d3 D3|!
G2B A2c|B2d c2e|def gfe|dcB AGF|!
G2B A2c|B2d c2e|dcB AGF|G3 “^A, in MS”G,3:|

